X: 9849
T: Deóra Dé
R: slip jig
M: 9/8
K: Adorian
M:7/8
ez A2 BAG|Az E2 GED|ez A2 BAG|A/B/c de ~a2g|
ez A2 BAG|Az E2 GED|E/F/G AB ~c2e|dBGB A3:|
az e2 g2b|a2 e2 c'2b|g2 d2 c2d|B2 d2 g2b|
~a2 e2 g2b|a2 b2 c'2e'|1 d'c'b a2 g2|d'c'b a2 g2:|2 [M:9/8]d'c'b a2 a2 a2|[M:7/8]d'c'b a2-a2||

